X:1
T:O God of Mighty Wind and Flame
T:O God of Mighty Wind and Flame
T:Gesangbuch der H. W. K. Hofkapelle, 1784
T:Carolyn Winfrey Gillette, 2007
T:© 2007 Carolyn Winfrey Gillette Courtesy of the Cyber Hymnal™
T:© 2007 Carolyn Winfrey Gillette Courtesy of the Cyber Hymnal™
C:Gesangbuch der H. W. K. Hofkapelle, 1784
Z:© 2007 Carolyn Winfrey Gillette
Z:Courtesy of the Cyber Hymnal™
%%score ( 1 2 ) ( 3 4 )
L:1/8
Q:1/4=113
M:4/4
K:Bb
V:1 treble 
V:2 treble 
V:3 bass 
V:4 bass 
V:1
 F2 | B2 (AG) F2 [FB]2 | D2 E2 [CF]2 [DF]2 | (GA) [FB]2 [Gc]2 [Fc]2 | [Fd]6 F2 | B2 (AG) F2 [FB]2 | %6
w: 1.~O|God of * might- y|wind and flame Who|fills * your church with|power, We|ga- ther * here in|
w: 2.~Some,|hav- ing * not the|time to pack, Lost|all * they left be-|hind; We|pray that * when they|
w: 3.~Some|la- bor * hard for|lit- tle pay; Their|bless- * ings seem so|few. They|don’t have * homes to|
w: 4.~O|God in * whom we|live and move— When|lives * are torn a-|part, Give|us, your * church, a-|
 D2 E2 [CF]2 [DF]2 | (GA) B2 [FB]2 [FA]2 | [FB]6 ([DB][Ec]) | [Fd]2 [Fc]2 [Fd]2 [Ge]2 | %10
w: Je- sus’ name, To|ask * your help this|hour. When *|na- ture’s might seems|
w: can go back, Your|strength * is what they’ll|find. As *|they are griev- ing,|
w: save this day— God,|keep * them close to|you. Some *|risk their lives and|
w: bun- dant love To|heal * each brok- en|heart. And *|when we see our|
 c2 (AB) [Fc]2 ([DB][Fc]) | [Fd]2 [Fc]2 [Fd]2 [Ge]2 | [Fc]6 F2 | B2 F2 [FB]2 | D2 E2 [CF]2 [DF]2 | %15
w: far too * strong And *|flames are swirl- ing|high, When|days bring fear|and nights are long,|
w: bend- ing * low To *|sift through ash and|stone, We|pray that soon,|a- gain, they’ll know|
w: give up * sleep, To *|fight the fires so|long; In|this, the vi-|gil that they keep,|
w: neigh- bors’ * pain, Give *|us the grace to|share, Till|like a gen-|tle, need- ed rain,|
 (GA) B2 [FB]2 [FA]2 | [FB]6 |] %17
w: Lord, * hear your peo-|ple’s|
w: The * com- fort of|a|
w: God, * keep them safe|and|
w: New * hope will fill|the|
V:2
 F2 | B2 F2 x4 | D2 (CB,) x4 | E2 x6 | x6 F2 | B2 F2 x4 | D2 (CB,) x4 | E2 (DE) x4 | x8 | x8 | %10
 F4 x4 | x8 | x6 F2 | B2 (AG) F2 | D2 (CB,) x4 | E2 (DE) x4 | x6 |] %17
V:3
 F,2 | B,2 F,2 [D,B,]2 x2 | [G,B,]4 [F,A,]2 [B,,B,]2 | [E,B,]2 [D,B,]2 [E,B,]2 [F,A,]2 | %4
 [B,,B,]6 F,2 | B,2 F,2 [D,B,]2 x2 | [G,B,]4 [F,A,]2 [B,,B,]2 | [E,B,]2 [G,B,]2 [F,B,]2 [F,C]2 | %8
 [B,,D]6 [B,,B,]2 | B,2 [A,C]2 B,2 [E,B,]2 | A,2 (F,G,) [F,A,]2 ([G,D][A,C]) | %11
 B,2 [A,C]2 [E,B,]2 x2 | [F,A,]6 F,2 | B,2 F,2 [D,B,]2 | [G,B,]4 [F,A,]2 [B,,B,]2 | %15
 [E,B,]2 [G,B,]2 [F,C]2 [F,C]2 | [B,,D]6 |] %17
V:4
 F,2 | B,2 (A,G,) F,2 x2 | x8 | x8 | x6 F,2 | B,2 (A,G,) F,2 x2 | x8 | x8 | x8 | B,2 B,2 x4 | %10
 F,4 x4 | B,2 B,2 x4 | x6 F,2 | B,2 (A,G,) F,2 | x8 | x8 | x6 |] %17

